X:1
T:James Gibb editions
T:Gloria tibi, Domine - Byrd
%%score [ 1 2 3 ]
L:1/8
Q:1/4=108
M:4/4
K:Eb
V:1 treble nm="Alto" snm="A"
V:2 treble-8 nm="Tenor" snm="T"
V:3 bass nm="Bass" snm="B"
V:1
"^Gloria tibi, Domine""^William Byrd\n(1543-1623)" z8 | z8 | z4 E4- | E4 F4 |"^5" G4 A4- | A4 G4 | %6
w: ||Glo\-|* ri-|a ti\-|* bi,|
 A4 F4 |[M:4/4] E4 z2 G2 | C2 D2 E2 F2 |"^10" G3 F E2 (F2- | F2 E2 D2 C2 | =B,2 C4) B,2 | C8 | %13
w: Do- mi-|ne, Qui|na- tus es de|Vir- gi- ne, Vir\-||* * gi-|ne,|
 z2 F2 =E4 |"^15" F4 z2 B2 | =A4 B4 | z4 z2 G2 | A2 F2 G2 E2 | D4 z4 |"^20" D4 F3 E | %20
w: Cum Pa-|tre, cum|Pa- tre|et|San- cto Spi- ri-|tu,|In sem- pi-|
 D2 B,2 z2 F2 | B3 A G2 E2 | z2 G4 F2 | E4 z2 (G2- |"^25" G2 FE D2) E2 | D8 || (E8 | F8) | %28
w: ter- na, in|sem- pi- ter- na|sae- cu-|la, sae\-|* * * * cu-|la.|A\-||
 G4 z2 (E2 |"^30" A2 G2 F2 E2 | DE F4 E2 | D2 E4 D2) | E8 | %33
w: men, A\-||||men,|
[Q:1/4=107] z2[Q:1/4=105] (B,2[Q:1/4=103] E4- |"^35"[Q:1/4=100] E2[Q:1/4=99] _D2[Q:1/4=97] C4) | %35
w: A\- *||
[Q:1/4=92] B,8- |[Q:1/4=90] B,8 |] %37
w: men.||
V:2
 B3 c d2 e2- | e2 d2 e2 c2 | B4 z2 c2 | A2 B2 c2 d2 | e3 d c4 | z4 z2 c2 | F2 G2 A2 B2 | %7
w: Glo- ri- a ti\-|* bi, Do- mi-|ne, Qui|na- tus es de|Vir- gi- ne,|qui|na- tus es de|
[M:4/4][K:treble-8] c3 B A2 G2 | A2 B2 c4 | z2 d2 B3 c | d2 e2 f4- | f2 e2 d4 | z4 e4 | d4 c4 | %14
w: Vir- gi- ne, de|Vir- gi- ne,|qui na- tus|es de Vir\-|* gi- ne,|Cum|Pa- tre,|
 z2 f2 =e4 | f4 z2 d2 | e2 c2 d2 B2 | c2 d2 e2 c2- | c2 B4 =A2 | B4 d4 | f3 e d2 B2 | z2 G2 B3 A | %22
w: cum Pa-|tre et|San- cto Spi- ri-|tu, et San- cto|* Spi- ri-|tu, In|sem- pi- ter- na,|in sem- pi-|
 G2 E2 z2 A2- | A2 (GF) E4 | z2 B4 (AG) | F8 || z4 z2 (B2 | _d2 c2 B2 A2) | (GA B2 A2) G2 | %29
w: ter- na sae\-|* cu\- * la,|sae- cu\- *|la.|A\-||* * * * men,|
 z2 (E2 A2 G2 | F2 ED EF G2- | G2 FE F4) | E4 z2 (B2 | e3 _d c2 B2 | A2 F2 A4- | A4 G2 F2) | G8 |] %37
w: A\- * *|||men, A\-||||men.|
V:3
 z8 | z8 | E,3 F, G,2 A,2- | A,2 G,2 A,2 F,2 | E,4 z2 F,2 | C,2 D,2 E,2 C,2 | (F,3 E, _D,2) D,2 | %7
w: ||Glo- ri- a ti\-|* bi, Do- mi-|ne, Qui|na- tus es de|Vir\- * * gi-|
[M:4/4] C,8 | z2 G,2 C,2 D,2 | E,2 F,2 (G,2 A,2 | B,6) A,2 | G,8 | z4 z2 C2 | =B,4 C4 | A,4 G,4 | %15
w: ne,|qui na- tus|es de Vir\- *|* gi-|ne,|Cum|Pa- tre,|cum Pa-|
 F,4 z2 B,2 | C2 =A,2 B,2 G,2 | F,4 z2 E,2 | F,2 D,2 E,2 C,2 | B,,8 | B,,4 B,3 A, | %21
w: tre et|San- cto Spi- ri-|tu, et|San- cto Spi- ri-|tu,|In sem- pi-|
 G,2 E,2 z2 C,2 | E,3 D, C,2 A,,2 | C,6 C,2 | B,,8- | B,,8 || z2 (E,2 A,2 G,2 | %27
w: ter- na, in|sem- pi- ter- na|sae- cu-|la.||A\- * *|
 F,2 E,2 =D,E, F,2) | E,4 (C,4- | C,4 A,,4) | B,,8- | B,,8 | z2 (C,2 E,3 _D, | C,2 B,,2 A,,2 G,,2 | %34
w: |men, A\-||men,||A\- * *||
 A,,8) | E,8- | E,8 |] %37
w: |men.||

